X:1
T:Title
%%score ( 1 2 ) { 3 | 4 }
L:1/8
M:3/4
K:C
V:1 treble nm="Bright Piano"
V:2 treble 
V:3 bass nm="Bright Piano"
V:4 bass 
V:1
 z2 z2[Q:1/4=100] G2 | [Ec]2 [FB]2 [FA]2 | [FA]2 [EG]2 [FA]2 | [DG]2 [DF]2 [DF]2 | [CE]4 [CE]2 | %5
 [Ec]2 [DB]2 [EA]2 | [FA]2 [EG]2 [Ec]2 | [FB]2 [Ec]2 [Fd]2 | [Ec]4 G2 | B2 z2 z2 | [Gc]4 G2 | %11
 d2 z2 z2 | [Ee]4 [Ge]2 | [Ge]2 [Gd]2 [Gc]2 | [Ac]2 [GB]2 [FA]2 | [EG]2 [FA]2 [DF]2 | %16
 [DF]2 [CE]2 [EG]2 | [EG]2 [DG]2 [CG]2 | [CA]2 [FB]2 [Ec]2 | [Ge]4 [Fd]2 |[M:2/4] [Ec]4 |] %21
V:2
 x6 | x6 | x6 | x6 | x6 | x6 | x6 | x6 | x6 | G2- [GA]2 [GB]2 | x6 | F2- [Fc]2 [Fd]2 | x6 | x6 | %14
 x6 | x6 | x6 | x6 | x6 | x6 |[M:2/4] x4 |] %21
V:3
 z2 z2 G,2 | G,2 G,2 B,2 | C2 C2 B,2 | B,2 B,2 G,2 | G,4 G,2 | A,2 ^G,2 A,2 | D2 C2 G,2 | %7
 G,2 G,2 G,2 | C4 G,2 | D4 D2 | C4[K:bass] G,2 | B,2 A,2 B,2 | C4[K:treble] C2 | C2 B,2 C2 | %14
 A,2 B,2 C2 | C2 C2[K:bass] B,2 | B,2 G,2 G,2 | G,2 F,2 E,2 | F,2 G,2 G,2 | C4 B,2 |[M:2/4] C4 |] %21
V:4
 z6 | C,2 D,2 G,,2 | C,2 C,2 G,,2 | G,,2 G,,2 B,,2 | C,4 C,2 | A,,2 B,,2 C,2 | B,,2 C,2 C,2 | %7
 D,2 C,2 B,,2 | C,4 z2 | F,4 F,2 | E,4 z2 | G,4 G,2 | C,4 C,2 | G,2 F,2 E,2 | F,2 F,2 F,2 | %15
 C,2 C,2 G,,2 | G,,2 C,2 C,2 | C,2 B,,2 C,2 | z2 D,2 C,2 | G,6 |[M:2/4] C,4 |] %21

